X:159
T: Nikolaus, komm in unser Haus
N: D0267
O: Europa, Mitteleuropa, Deutschland, Westfalen, Muenster
R: Ansinge - Lied
M: 4/4
L: 1/8
K: G
ddd2dedc | B2B2B4 |
c2c2cdcB | A2A2A4 |
G2A2B2c2 | deded4 |
g2d2dedc | B2A2d4 |
g2d2dedc | B2A2G4

@@@ Tune index: 2681
